src/icons/document.svg

<svg xmlns="http://www.w3.org/2000/svg" width="512" height="512" viewBox="0 0 512 512">
    <path d="M382.4 172c-.6-2.6-1.8-4.4-3.1-6l-74.1-81.2c-1.7-1.9-3.6-2.7-5.8-3.9-2.6-1.3-5.4-1.4-8.3-1.4H149.5c-11 0-21 8.5-21 20.3v296.8c0 11.9 10 22.9 21 22.9h215.2c11 0 18.8-11.1 18.8-22.9V180.4c0-3.1-.4-5.5-1.1-8.4zm-83-51.2l51.4 56.2h-51.4v-56.2zM156.8 391.3V107.9H271v72.3c0 13.1 11.9 25.1 24.9 25.1h59.2v185.9H156.8v.1z"/>
</svg>

<?xml version="1.0" encoding="UTF-8"?>
<svg width="512px" height="512px" viewBox="0 0 512 512" version="1.1" xmlns="http://www.w3.org/2000/svg" xmlns:xlink="http://www.w3.org/1999/xlink">
    <!-- Generator: Sketch 62 (91390) - https://sketch.com -->
    <title>document</title>
    <desc>Created with Sketch.</desc>
    <g id="document" stroke="none" stroke-width="1" fill="none" fill-rule="evenodd">
        <path d="M382.4,172 C381.8,169.4 380.6,167.6 379.3,166 L305.2,84.8 C303.5,82.9 301.6,82.1 299.4,80.9 C296.8,79.6 294,79.5 291.1,79.5 L149.5,79.5 C138.5,79.5 128.5,88 128.5,99.8 L128.5,396.6 C128.5,408.5 138.5,419.5 149.5,419.5 L364.7,419.5 C375.7,419.5 383.5,408.4 383.5,396.6 L383.5,180.4 C383.5,177.3 383.1,174.9 382.4,172 Z M299.4,120.8 L350.8,177 L299.4,177 L299.4,120.8 Z M156.8,391.3 L156.8,107.9 L271,107.9 L271,180.2 C271,193.3 282.9,205.3 295.9,205.3 L355.1,205.3 L355.1,391.2 L156.8,391.2 L156.8,391.3 Z" id="Shape" fill="#000000" fill-rule="nonzero"></path>
    </g>
</svg>
